SVG/moon-o.svg

<?xml version="1.0" encoding="utf-8"?>
<!-- Generated by IcoMoon.io -->
<!DOCTYPE svg PUBLIC "-//W3C//DTD SVG 1.1//EN" "http://www.w3.org/Graphics/SVG/1.1/DTD/svg11.dtd">
<svg version="1.1" xmlns="http://www.w3.org/2000/svg" xmlns:xlink="http://www.w3.org/1999/xlink" width="12" height="14" viewBox="0 0 12 14">
<path fill="#444444" d="M9.859 10.18q-0.422 0.070-0.859 0.070-1.422 0-2.633-0.703t-1.914-1.914-0.703-2.633q0-1.5 0.813-2.789-1.57 0.469-2.566 1.789t-0.996 3q0 1.016 0.398 1.941t1.066 1.594 1.594 1.066 1.941 0.398q1.125 0 2.137-0.48t1.723-1.34zM11.445 9.516q-0.734 1.586-2.215 2.535t-3.23 0.949q-1.219 0-2.328-0.477t-1.914-1.281-1.281-1.914-0.477-2.328q0-1.195 0.449-2.285t1.219-1.887 1.84-1.285 2.266-0.535q0.344-0.016 0.477 0.305 0.141 0.32-0.117 0.563-0.672 0.609-1.027 1.418t-0.355 1.707q0 1.156 0.57 2.133t1.547 1.547 2.133 0.57q0.922 0 1.781-0.398 0.32-0.141 0.563 0.102 0.109 0.109 0.137 0.266t-0.035 0.297z"></path>
</svg>

<svg xmlns="http://www.w3.org/2000/svg" viewBox="0 0 12 14"><path d="M9.86 10.18q-.423.07-.86.07-1.422 0-2.633-.703T4.453 7.633 3.75 5q0-1.5.813-2.79-1.57.47-2.566 1.79T1 7q0 1.016.4 1.94t1.065 1.595T4.06 11.6 6 12q1.125 0 2.137-.48t1.723-1.34zm1.585-.664q-.734 1.586-2.215 2.535T6 13q-1.22 0-2.328-.477t-1.914-1.28-1.28-1.915T0 7q0-1.195.45-2.285t1.218-1.887 1.84-1.285 2.266-.535q.344-.016.477.305.142.32-.116.563-.672.61-1.027 1.418T4.752 5q0 1.157.57 2.134T6.87 8.68 9 9.25q.922 0 1.78-.397.32-.14.564.102.11.11.137.266t-.035.298z" /></svg>
